X:1
T:Christine, 88.88.88
T:Christine, 88.88.88
T:Ernest Richard Kroeger, 1901
T:Public Domain Courtesy of the Cyber Hymnal™
C:Ernest Richard Kroeger, 1901
Z:Public Domain
Z:Courtesy of the Cyber Hymnal™
%%score ( 1 2 ) ( 3 4 )
L:1/8
Q:1/4=135
M:6/4
K:Db
V:1 treble 
V:2 treble 
V:3 bass 
V:4 bass 
V:1
 ([DF][EG]) | [FA]4 [FA]2 [Gd]4 [GB]2 | [FA]4 [DF]2 [FA]4 A2 | [GB]4 [GB]2 [Ge]4 [=Gd]2 | %4
 [Ac]4 [=GB]2 [EA]4 ([DF][E_G]) | [FA]4 [FA]2 [Gd]4 [GB]2 | [FA]4 [DF]2 [FA]4 [_FA]2 | %7
 [Ec]4 [Ac]2 [Ad]4 [Ac]2 | (B2 c2) [=GB]2 [EA]4 A2 | [Ge]4 [Ge]2 [GB]4 [Gc]2 | %10
 [Fd]4 [GB]2 [FA]4 [FA]2 | [GB]4 [AB]2 (B2 e2) [=Gd]2 | [Ac]4 [Gc]2 [Fd]4 |] %13
V:2
 x2 | x12 | x10 A2 | x12 | x12 | x12 | x12 | x12 | A4 x4 A2 x2 | x12 | x12 | x6 =G4 x2 | x10 |] %13
V:3
 [D,A,]2 | [D,A,]4 [D,A,]2 [D,B,]4 [D,C]2 | [D,D]4 [D,A,]2 [D,D]4 [F,D]2 | %3
 [G,D]4 [G,D]2 [E,E]4 [E,E]2 | [A,E]4 [A,D]2 [A,C]4 [D,A,]2 | [D,D]4 [D,_C]2 [G,,B,]4 [B,,D]2 | %6
 [D,D]4 [D,A,]2 [D,D]4 [D,D]2 | A,2 C2 [E,E]2 [E,F]4 [E,E]2 | [E,=D]4 [E,_D]2 [A,C]4 [A,C]2 | %9
 [A,C]4 [A,C]2 [A,D]4 [A,E]2 | [B,D]4 [G,D]2 [D,D]4 [D,D]2 | [G,D]4 [F,=D]2 [E,E]4 [E,E]2 | %12
 [A,E]4 [A,E]2 [D,D]4 |] %13
V:4
 x2 | x12 | x12 | x12 | x12 | x12 | x12 | E,4 x8 | x12 | x12 | x12 | x12 | x10 |] %13

